X:1
T: the Old Mole
Z: John Chambers <jc:trillian.mit.edu>
C: Trad
M: 6/8
K: D
|: "D"d2d "G"B>cd | "A7"e2c A2A | "D"d2d "G"B>cd | "A7"e3 a3 || \
   "D"f2d "G"B>cd | "A7"e2c A2A | "G"B>cd "A7"cBc | "D"d6 :|
